source/img/contrast.svg

<svg fill="none" height="32" viewBox="0 0 32 32" width="32" xmlns="http://www.w3.org/2000/svg"><g fill="#283645" opacity=".3"><path d="m16 4c2.3734 0 4.6935.70379 6.6669 2.02236 1.9733 1.31858 3.5114 3.19273 4.4197 5.38544.9082 2.1927 1.1459 4.6055.6828 6.9333-.463 2.3278-1.6059 4.466-3.2841 6.1442s-3.8164 2.8211-6.1442 3.2841-4.7406.2254-6.9333-.6828c-2.19271-.9083-4.06685-2.4464-5.38543-4.4198-1.31858-1.9733-2.02236-4.2934-2.02236-6.6668 0-3.1826 1.26428-6.23485 3.51472-8.48528 2.25043-2.25044 5.30267-3.51472 8.48527-3.51472zm0-4c-3.1645 0-6.25793.938384-8.88912 2.69649-2.63118 1.7581-4.68194 4.25696-5.89295 7.18057-1.2109975 2.92364-1.527851 6.14064-.910487 9.24434.617363 3.1037 2.141217 5.9547 4.378857 8.1923s5.08857 3.7615 8.1923 4.3789c3.1037.6173 6.3207.3005 9.2443-.9105 2.9237-1.211 5.4225-3.2618 7.1806-5.893s2.6965-5.7246 2.6965-8.8891c0-4.2435-1.6857-8.31313-4.6863-11.31371s-7.0702-4.68629-11.3137-4.68629z"/><path d="m16 24.29c2.1536-.1478 4.1708-1.1076 5.644-2.6854s2.2926-3.656 2.2926-5.8146-.8194-4.2368-2.2926-5.81462c-1.4732-1.57779-3.4904-2.53756-5.644-2.68538"/></g></svg>

<svg width="32" height="32" viewBox="0 0 32 32" fill="none" xmlns="http://www.w3.org/2000/svg">
<g opacity="0.3">
<path d="M16 4C18.3734 4 20.6935 4.70379 22.6669 6.02236C24.6402 7.34094 26.1783 9.21509 27.0866 11.4078C27.9948 13.6005 28.2325 16.0133 27.7694 18.3411C27.3064 20.6689 26.1635 22.8071 24.4853 24.4853C22.8071 26.1635 20.6689 27.3064 18.3411 27.7694C16.0133 28.2324 13.6005 27.9948 11.4078 27.0866C9.21509 26.1783 7.34095 24.6402 6.02237 22.6668C4.70379 20.6935 4.00001 18.3734 4.00001 16C4.00001 12.8174 5.26429 9.76515 7.51473 7.51472C9.76516 5.26428 12.8174 4 16 4ZM16 0C12.8355 0 9.74207 0.938384 7.11088 2.69649C4.4797 4.45459 2.42894 6.95345 1.21793 9.87706C0.0069325 12.8007 -0.309921 16.0177 0.307443 19.1214C0.924806 22.2251 2.44866 25.0761 4.6863 27.3137C6.92394 29.5513 9.77487 31.0752 12.8786 31.6926C15.9823 32.3099 19.1993 31.9931 22.1229 30.7821C25.0466 29.5711 27.5454 27.5203 29.3035 24.8891C31.0616 22.2579 32 19.1645 32 16C32 11.7565 30.3143 7.68687 27.3137 4.68629C24.3131 1.68571 20.2435 0 16 0Z" fill="#283645"/>
<path d="M16 24.29C18.1536 24.1422 20.1708 23.1824 21.644 21.6046C23.1172 20.0268 23.9366 17.9486 23.9366 15.79C23.9366 13.6314 23.1172 11.5532 21.644 9.97538C20.1708 8.39759 18.1536 7.43782 16 7.29" fill="#283645"/>
</g>
</svg>
